js/views/resources/company.svg

<?xml version="1.0" encoding="UTF-8" standalone="no"?>
<svg id="Capa_1" xmlns:rdf="http://www.w3.org/1999/02/22-rdf-syntax-ns#" xmlns="http://www.w3.org/2000/svg" xml:space="preserve" height="173.65" viewBox="0 0 209.99999 173.65266" width="210" version="1.1" y="0px" x="0px" xmlns:cc="http://creativecommons.org/ns#" xmlns:dc="http://purl.org/dc/elements/1.1/"><g id="g3" transform="matrix(0.39196508,0,0,0.39196508,9.9999973,-8.1738529)"><g id="g5"><path id="path7" d="m131.01,438.37h85.624v-87.557h51.467v87.557h85.624v-392h-222.71v392.01zm126.98-345.81h51.466v51.467h-51.467v-51.466zm0,82.715h51.466v51.467h-51.466v-51.467zm0,82.713h51.466v51.467h-51.467v-51.468zm-82.71-165.43h51.466v51.467h-51.471v-51.466zm0,82.715h51.466v51.467h-51.466v-51.467zm0,82.713h51.466v51.467h-51.466v-51.467z"/><path id="path9" d="M373.72,81.482v277.18h33.065v79.712h77.954v-356.89h-111.01zm70.718,239.53h-46.86v-46.856h46.856v46.856zm0-75.306h-46.86v-46.855h46.856v46.855zm0-75.305h-46.86v-46.855h46.856v46.855z"/><path id="path11" d="M0,438.37h77.954v-79.71h33.065v-277.18h-111.02v356.89zm40.302-314.83h46.856v46.855h-46.856v-46.855zm0,75.305h46.856v46.855h-46.856v-46.855zm0,75.303h46.856v46.855h-46.856v-46.855z"/></g></g></svg>

<?xml version="1.0" encoding="UTF-8" standalone="no"?>
<!-- Generator: Adobe Illustrator 16.0.0, SVG Export Plug-In . SVG Version: 6.00 Build 0)  -->

<svg
   xmlns:dc="http://purl.org/dc/elements/1.1/"
   xmlns:cc="http://creativecommons.org/ns#"
   xmlns:rdf="http://www.w3.org/1999/02/22-rdf-syntax-ns#"
   xmlns:svg="http://www.w3.org/2000/svg"
   xmlns="http://www.w3.org/2000/svg"
   xmlns:sodipodi="http://sodipodi.sourceforge.net/DTD/sodipodi-0.dtd"
   xmlns:inkscape="http://www.inkscape.org/namespaces/inkscape"
   version="1.1"
   id="Capa_1"
   x="0px"
   y="0px"
   width="210"
   height="173.65266"
   viewBox="0 0 209.99999 173.65266"
   xml:space="preserve"
   inkscape:version="0.48.4 r9939"
   sodipodi:docname="Company.svg"><metadata
     id="metadata47"><rdf:RDF><cc:Work
         rdf:about=""><dc:format>image/svg+xml</dc:format><dc:type
           rdf:resource="http://purl.org/dc/dcmitype/StillImage" /></cc:Work></rdf:RDF></metadata><defs
     id="defs45" /><sodipodi:namedview
     pagecolor="#ffffff"
     bordercolor="#666666"
     borderopacity="1"
     objecttolerance="10"
     gridtolerance="10"
     guidetolerance="10"
     inkscape:pageopacity="0"
     inkscape:pageshadow="2"
     inkscape:window-width="640"
     inkscape:window-height="480"
     id="namedview43"
     showgrid="false"
     fit-margin-top="10"
     fit-margin-left="10"
     fit-margin-right="10"
     fit-margin-bottom="10"
     inkscape:zoom="0.54285569"
     inkscape:cx="-38.684413"
     inkscape:cy="-7.3503517"
     inkscape:window-x="115"
     inkscape:window-y="188"
     inkscape:window-maximized="0"
     inkscape:current-layer="Capa_1"
     showguides="true"
     inkscape:guide-bbox="true" /><g
     id="g3"
     transform="matrix(0.39196508,0,0,0.39196508,9.9999973,-8.1738529)"><g
       id="g5"><path
         d="m 131.012,438.372 h 85.624 v -87.557 h 51.467 v 87.557 h 85.624 V 46.366 H 131.012 V 438.372 z M 257.993,92.564 h 51.466 v 51.467 H 257.993 V 92.564 z m 0,82.715 h 51.466 v 51.467 h -51.466 v -51.467 z m 0,82.713 h 51.466 v 51.467 H 257.993 V 257.992 z M 175.279,92.564 h 51.466 v 51.467 H 175.279 V 92.564 z m 0,82.715 h 51.466 v 51.467 h -51.466 v -51.467 z m 0,82.713 h 51.466 v 51.467 h -51.466 v -51.467 z"
         id="path7"
         inkscape:connector-curvature="0" /><path
         d="M 373.719,81.482 V 358.66 h 33.065 v 79.712 h 77.954 V 81.482 H 373.719 z m 70.718,239.527 H 397.58 v -46.856 h 46.856 v 46.856 z m 0,-75.306 H 397.58 v -46.855 h 46.856 v 46.855 z m 0,-75.305 H 397.58 v -46.855 h 46.856 v 46.855 z"
         id="path9"
         inkscape:connector-curvature="0" /><path
         d="M 0,438.372 H 77.954 V 358.66 h 33.065 V 81.482 H 0 v 356.89 z M 40.302,123.543 h 46.856 v 46.855 H 40.302 v -46.855 z m 0,75.305 h 46.856 v 46.855 H 40.302 v -46.855 z m 0,75.303 h 46.856 v 46.855 H 40.302 v -46.855 z"
         id="path11"
         inkscape:connector-curvature="0" /></g></g><g
     id="g13"
     transform="translate(-281.05341,-36.366)" /><g
     id="g15"
     transform="translate(-281.05341,-36.366)" /><g
     id="g17"
     transform="translate(-281.05341,-36.366)" /><g
     id="g19"
     transform="translate(-281.05341,-36.366)" /><g
     id="g21"
     transform="translate(-281.05341,-36.366)" /><g
     id="g23"
     transform="translate(-281.05341,-36.366)" /><g
     id="g25"
     transform="translate(-281.05341,-36.366)" /><g
     id="g27"
     transform="translate(-281.05341,-36.366)" /><g
     id="g29"
     transform="translate(-281.05341,-36.366)" /><g
     id="g31"
     transform="translate(-281.05341,-36.366)" /><g
     id="g33"
     transform="translate(-281.05341,-36.366)" /><g
     id="g35"
     transform="translate(-281.05341,-36.366)" /><g
     id="g37"
     transform="translate(-281.05341,-36.366)" /><g
     id="g39"
     transform="translate(-281.05341,-36.366)" /><g
     id="g41"
     transform="translate(-281.05341,-36.366)" /></svg>
